image/explore/icon-3.svg

<svg xmlns="http://www.w3.org/2000/svg" width="20" height="30" viewBox="0 0 20 30" fill="none"><mask id="path-1-inside-1_7745_10758" fill="white"><path fill-rule="evenodd" clip-rule="evenodd" d="M6.41678 0C4.93607 0 3.67682 1.08033 3.45167 2.54383L3.1622 4.42541C3.01725 5.36756 4.04401 6.1543 4.99725 6.1543H14.9972C15.9502 6.1543 16.9765 5.3678 16.8316 4.42591L16.5421 2.54383C16.3169 1.08033 15.0577 0 13.577 0H6.41678ZM16.8315 25.5749C16.9764 24.6331 15.9502 23.8466 14.9972 23.8466H4.99725C4.04406 23.8466 3.01738 24.6333 3.16232 25.5754L3.45167 27.4562C3.67682 28.9197 4.93607 30 6.41679 30H13.577C15.0577 30 16.3169 28.9197 16.5421 27.4562L16.8315 25.5749Z"></path></mask><path d="M3.45167 2.54383L1.47493 2.23971L3.45167 2.54383ZM16.5421 2.54383L14.5653 2.84794V2.84794L16.5421 2.54383ZM3.45167 27.4562L1.47493 27.7603H1.47493L3.45167 27.4562ZM16.5421 27.4562L14.5653 27.1521V27.1521L16.5421 27.4562ZM5.42841 2.84794C5.50346 2.36011 5.92321 2 6.41678 2V-2C3.94893 -2 1.85018 -0.199446 1.47493 2.23971L5.42841 2.84794ZM5.13894 4.72952L5.42841 2.84794L1.47493 2.23971L1.18545 4.12129L5.13894 4.72952ZM4.99725 8.1543H14.9972V4.1543H4.99725V8.1543ZM14.5653 2.84794L14.8549 4.73002L18.8084 4.12179L18.5188 2.23971L14.5653 2.84794ZM13.577 2C14.0705 2 14.4903 2.36011 14.5653 2.84794L18.5188 2.23971C18.1436 -0.199447 16.0448 -2 13.577 -2V2ZM6.41678 2H13.577V-2H6.41678V2ZM14.9972 21.8466H4.99725V25.8466H14.9972V21.8466ZM5.42841 27.1521L5.13906 25.2713L1.18558 25.8795L1.47493 27.7603L5.42841 27.1521ZM6.41679 28C5.92321 28 5.50346 27.6399 5.42841 27.1521L1.47493 27.7603C1.85018 30.1994 3.94894 32 6.41679 32V28ZM13.577 28H6.41679V32H13.577V28ZM14.5653 27.1521C14.4903 27.6399 14.0705 28 13.577 28V32C16.0448 32 18.1436 30.1994 18.5188 27.7603L14.5653 27.1521ZM14.8548 25.2708L14.5653 27.1521L18.5188 27.7603L18.8082 25.879L14.8548 25.2708ZM4.99725 21.8466C4.00776 21.8466 3.04957 22.2385 2.34754 22.8556C1.63705 23.4801 0.980635 24.5474 1.18558 25.8795L5.13906 25.2713C5.16564 25.444 5.13341 25.6021 5.08441 25.7134C5.04024 25.8138 4.99287 25.856 4.98844 25.8599C4.98297 25.8647 4.99186 25.8564 5.01147 25.8488C5.0313 25.8411 5.02943 25.8466 4.99725 25.8466V21.8466ZM14.9972 25.8466C14.965 25.8466 14.963 25.8411 14.9828 25.8488C15.0023 25.8563 15.0111 25.8645 15.0055 25.8596C15.001 25.8557 14.9536 25.8134 14.9094 25.713C14.8604 25.6016 14.8282 25.4436 14.8548 25.2708L18.8082 25.879C19.0131 24.5472 18.357 23.48 17.6466 22.8555C16.9447 22.2384 15.9866 21.8466 14.9972 21.8466V25.8466ZM14.9972 8.1543C15.9866 8.1543 16.9447 7.76248 17.6467 7.14539C18.3571 6.52086 19.0133 5.4537 18.8084 4.12179L14.8549 4.73002C14.8283 4.55726 14.8605 4.39919 14.9095 4.2878C14.9537 4.18739 15.0011 4.14518 15.0056 4.14123C15.0112 4.13637 15.0023 4.14455 14.9828 4.15212C14.9631 4.15979 14.965 4.1543 14.9972 4.1543V8.1543ZM1.18545 4.12129C0.980504 5.45346 1.63696 6.52075 2.34747 7.14531C3.04952 7.76244 4.00774 8.1543 4.99725 8.1543V4.1543C5.02941 4.1543 5.03127 4.15977 5.01142 4.15207C4.9918 4.14446 4.98289 4.13622 4.98834 4.14101C4.99276 4.1449 5.04012 4.18704 5.08428 4.28738C5.13329 4.39873 5.16552 4.55677 5.13894 4.72952L1.18545 4.12129Z" fill="#2E2E2E" mask="url(#path-1-inside-1_7745_10758)"></path><rect x="1" y="5.61523" width="18" height="18.7692" rx="2" stroke="#2E2E2E" stroke-width="2"></rect><mask id="path-4-inside-2_7745_10758" fill="white"><path fill-rule="evenodd" clip-rule="evenodd" d="M15.5433 16.0223C15.8448 16.7502 16 17.5304 16 18.3184L4 18.3184C4 17.5304 4.15519 16.7502 4.45672 16.0223C4.75825 15.2943 5.20021 14.6329 5.75736 14.0757C6.31451 13.5186 6.97595 13.0766 7.7039 12.7751C8.43185 12.4736 9.21207 12.3184 10 12.3184C10.7879 12.3184 11.5681 12.4736 12.2961 12.7751C13.0241 13.0766 13.6855 13.5186 14.2426 14.0757C14.7998 14.6329 15.2417 15.2943 15.5433 16.0223ZM8.5 16.0627C8.5 16.4769 8.16421 16.8127 7.75 16.8127C7.33579 16.8127 7 16.4769 7 16.0627C7 15.6485 7.33579 15.3127 7.75 15.3127C8.16421 15.3127 8.5 15.6485 8.5 16.0627ZM13 16.0627C13 16.4769 12.6642 16.8127 12.25 16.8127C11.8358 16.8127 11.5 16.4769 11.5 16.0627C11.5 15.6485 11.8358 15.3127 12.25 15.3127C12.6642 15.3127 13 15.6485 13 16.0627Z"></path></mask><path fill-rule="evenodd" clip-rule="evenodd" d="M15.5433 16.0223C15.8448 16.7502 16 17.5304 16 18.3184L4 18.3184C4 17.5304 4.15519 16.7502 4.45672 16.0223C4.75825 15.2943 5.20021 14.6329 5.75736 14.0757C6.31451 13.5186 6.97595 13.0766 7.7039 12.7751C8.43185 12.4736 9.21207 12.3184 10 12.3184C10.7879 12.3184 11.5681 12.4736 12.2961 12.7751C13.0241 13.0766 13.6855 13.5186 14.2426 14.0757C14.7998 14.6329 15.2417 15.2943 15.5433 16.0223ZM8.5 16.0627C8.5 16.4769 8.16421 16.8127 7.75 16.8127C7.33579 16.8127 7 16.4769 7 16.0627C7 15.6485 7.33579 15.3127 7.75 15.3127C8.16421 15.3127 8.5 15.6485 8.5 16.0627ZM13 16.0627C13 16.4769 12.6642 16.8127 12.25 16.8127C11.8358 16.8127 11.5 16.4769 11.5 16.0627C11.5 15.6485 11.8358 15.3127 12.25 15.3127C12.6642 15.3127 13 15.6485 13 16.0627Z" fill="#C63031"></path><path d="M16 18.3184V20.3184H18V18.3184H16ZM15.5433 16.0223L13.6955 16.7876L13.6955 16.7876L15.5433 16.0223ZM4 18.3184H2V20.3184H4L4 18.3184ZM4.45672 16.0223L2.60896 15.2569V15.2569L4.45672 16.0223ZM5.75736 14.0757L4.34315 12.6615L4.34315 12.6615L5.75736 14.0757ZM7.7039 12.7751L8.46927 14.6228H8.46927L7.7039 12.7751ZM12.2961 12.7751L13.0615 10.9273L13.0615 10.9273L12.2961 12.7751ZM14.2426 14.0757L15.6569 12.6615L15.6569 12.6615L14.2426 14.0757ZM18 18.3184C18 17.2678 17.7931 16.2275 17.391 15.2569L13.6955 16.7876C13.8965 17.2729 14 17.7931 14 18.3184H18ZM4 20.3184L16 20.3184V16.3184L4 16.3184L4 20.3184ZM2.60896 15.2569C2.20693 16.2275 2 17.2678 2 18.3184H6C6 17.7931 6.10346 17.2729 6.30448 16.7876L2.60896 15.2569ZM4.34315 12.6615C3.60028 13.4044 3.011 14.2863 2.60896 15.2569L6.30448 16.7876C6.5055 16.3023 6.80014 15.8614 7.17157 15.4899L4.34315 12.6615ZM6.93853 10.9273C5.96793 11.3294 5.08601 11.9186 4.34315 12.6615L7.17157 15.4899C7.54301 15.1185 7.98396 14.8239 8.46927 14.6228L6.93853 10.9273ZM10 10.3184C8.94942 10.3184 7.90914 10.5253 6.93853 10.9273L8.46927 14.6228C8.95457 14.4218 9.47471 14.3184 10 14.3184V10.3184ZM13.0615 10.9273C12.0909 10.5253 11.0506 10.3184 10 10.3184V14.3184C10.5253 14.3184 11.0454 14.4218 11.5307 14.6228L13.0615 10.9273ZM15.6569 12.6615C14.914 11.9186 14.0321 11.3294 13.0615 10.9273L11.5307 14.6228C12.016 14.8239 12.457 15.1185 12.8284 15.4899L15.6569 12.6615ZM17.391 15.2569C16.989 14.2863 16.3997 13.4044 15.6569 12.6615L12.8284 15.4899C13.1999 15.8614 13.4945 16.3023 13.6955 16.7876L17.391 15.2569ZM7.75 18.8127C9.26878 18.8127 10.5 17.5815 10.5 16.0627H6.5C6.5 15.3723 7.05964 14.8127 7.75 14.8127V18.8127ZM5 16.0627C5 17.5815 6.23122 18.8127 7.75 18.8127V14.8127C8.44036 14.8127 9 15.3723 9 16.0627H5ZM7.75 13.3127C6.23122 13.3127 5 14.5439 5 16.0627H9C9 16.753 8.44036 17.3127 7.75 17.3127V13.3127ZM10.5 16.0627C10.5 14.5439 9.26878 13.3127 7.75 13.3127V17.3127C7.05964 17.3127 6.5 16.753 6.5 16.0627H10.5ZM12.25 18.8127C13.7688 18.8127 15 17.5815 15 16.0627H11C11 15.3723 11.5596 14.8127 12.25 14.8127V18.8127ZM9.5 16.0627C9.5 17.5815 10.7312 18.8127 12.25 18.8127V14.8127C12.9404 14.8127 13.5 15.3723 13.5 16.0627H9.5ZM12.25 13.3127C10.7312 13.3127 9.5 14.5439 9.5 16.0627H13.5C13.5 16.753 12.9404 17.3127 12.25 17.3127V13.3127ZM15 16.0627C15 14.5439 13.7688 13.3127 12.25 13.3127V17.3127C11.5596 17.3127 11 16.753 11 16.0627H15Z" fill="#C63031" mask="url(#path-4-inside-2_7745_10758)"></path><path fill-rule="evenodd" clip-rule="evenodd" d="M6.10966 11.4685C6.43311 11.2098 6.90508 11.2622 7.16383 11.5857L9.03792 13.9283C9.29668 14.2517 9.24424 14.7237 8.92079 14.9824C8.59734 15.2412 8.12537 15.1887 7.86662 14.8653L5.99253 12.5227C5.73377 12.1992 5.78621 11.7273 6.10966 11.4685Z" fill="#C63031"></path><path fill-rule="evenodd" clip-rule="evenodd" d="M14.07 11.4685C13.7466 11.2098 13.2746 11.2622 13.0159 11.5857L11.1418 13.9283C10.883 14.2517 10.9355 14.7237 11.2589 14.9824C11.5823 15.2412 12.0543 15.1887 12.3131 14.8653L14.1872 12.5227C14.4459 12.1992 14.3935 11.7273 14.07 11.4685Z" fill="#C63031"></path></svg>

<svg xmlns="http://www.w3.org/2000/svg" width="20" height="30" fill="none"><mask id="a" fill="#fff"><path fill-rule="evenodd" clip-rule="evenodd" d="M6.417 0a3 3 0 0 0-2.965 2.544l-.29 1.881c-.145.943.882 1.73 1.835 1.73h10c.953 0 1.98-.787 1.835-1.73l-.29-1.881A3 3 0 0 0 13.577 0h-7.16Zm10.415 25.575c.144-.942-.882-1.728-1.835-1.728h-10c-.953 0-1.98.786-1.835 1.728l.29 1.881A3 3 0 0 0 6.417 30h7.16a3 3 0 0 0 2.965-2.544l.29-1.881Z"/></mask><path d="M3.452 2.544 1.475 2.24l1.977.304Zm13.09 0-1.977.304 1.977-.304ZM3.452 27.456l-1.977.304 1.977-.304Zm13.09 0-1.977-.304 1.977.304ZM5.428 2.848A1 1 0 0 1 6.417 2v-4a5 5 0 0 0-4.942 4.24l3.953.608Zm-.29 1.882.29-1.882-3.953-.608-.29 1.881 3.954.609Zm-.14 3.424h10v-4h-10v4Zm9.567-5.306.29 1.882 3.953-.608-.29-1.882-3.953.608ZM13.577 2a1 1 0 0 1 .988.848l3.954-.608A5 5 0 0 0 13.577-2v4Zm-7.16 0h7.16v-4h-7.16v4Zm8.58 19.847h-10v4h10v-4Zm-9.569 5.305-.289-1.88-3.953.608.289 1.88 3.953-.608Zm.989.848a1 1 0 0 1-.989-.848l-3.953.608A5 5 0 0 0 6.417 32v-4Zm7.16 0h-7.16v4h7.16v-4Zm.988-.848a1 1 0 0 1-.988.848v4a5 5 0 0 0 4.942-4.24l-3.954-.608Zm.29-1.881-.29 1.881 3.954.608.29-1.881-3.954-.608Zm-9.858-3.424c-.99 0-1.947.391-2.65 1.009-.71.624-1.366 1.691-1.161 3.023l3.953-.608a.811.811 0 0 1-.055.442.426.426 0 0 1-.096.147c-.005.005.004-.004.023-.011.02-.008.018-.002-.014-.002v-4Zm10 4c-.032 0-.034-.006-.014.002.02.007.028.015.022.01a.425.425 0 0 1-.096-.146.811.811 0 0 1-.054-.442l3.953.608c.205-1.332-.451-2.399-1.161-3.024a4.072 4.072 0 0 0-2.65-1.008v4Zm0-17.693c.99 0 1.948-.392 2.65-1.009.71-.624 1.366-1.691 1.161-3.023l-3.953.608a.811.811 0 0 1 .054-.442.426.426 0 0 1 .097-.147c.005-.005-.004.004-.023.011-.02.008-.018.002.014.002v4ZM1.185 4.121c-.204 1.332.452 2.4 1.162 3.024a4.073 4.073 0 0 0 2.65 1.01v-4c.032 0 .034.005.014-.003-.02-.008-.028-.016-.023-.011a.425.425 0 0 1 .096.146c.05.112.082.27.055.443L1.185 4.12Z" fill="#2E2E2E" mask="url(#a)"/><rect x="1" y="5.615" width="18" height="18.769" rx="2" stroke="#2E2E2E" stroke-width="2"/><mask id="b" fill="#fff"><path fill-rule="evenodd" clip-rule="evenodd" d="M15.543 16.022A6 6 0 0 1 16 18.318H4a6 6 0 0 1 11.543-2.296Zm-7.043.04a.75.75 0 1 1-1.5 0 .75.75 0 0 1 1.5 0Zm4.5 0a.75.75 0 1 1-1.5 0 .75.75 0 0 1 1.5 0Z"/></mask><path fill-rule="evenodd" clip-rule="evenodd" d="M15.543 16.022A6 6 0 0 1 16 18.318H4a6 6 0 0 1 11.543-2.296Zm-7.043.04a.75.75 0 1 1-1.5 0 .75.75 0 0 1 1.5 0Zm4.5 0a.75.75 0 1 1-1.5 0 .75.75 0 0 1 1.5 0Z" fill="#C63031"/><path d="M16 18.318v2h2v-2h-2Zm-.457-2.296-1.848.766 1.848-.766ZM4 18.318H2v2h2v-2Zm.457-2.296-1.848-.765 1.848.765Zm1.3-1.946L4.343 12.66l1.414 1.415Zm1.947-1.3.765 1.847-.765-1.848Zm4.592 0 .766-1.849-.766 1.848Zm1.947 1.3 1.414-1.415-1.414 1.415ZM18 18.318c0-1.05-.207-2.09-.609-3.061l-3.695 1.53A4 4 0 0 1 14 18.319h4Zm-14 2h12v-4H4v4Zm-1.391-5.061A8 8 0 0 0 2 18.318h4a4 4 0 0 1 .304-1.53L2.61 15.257Zm1.734-2.595a8 8 0 0 0-1.734 2.595l3.695 1.53a4 4 0 0 1 .868-1.297L4.343 12.66Zm2.596-1.735a8 8 0 0 0-2.596 1.735l2.829 2.828a4.002 4.002 0 0 1 1.297-.867l-1.53-3.696ZM10 10.318a8 8 0 0 0-3.061.61l1.53 3.695A4 4 0 0 1 10 14.318v-4Zm3.062.61a8 8 0 0 0-3.062-.61v4a4 4 0 0 1 1.53.305l1.532-3.696Zm2.595 1.733a8.001 8.001 0 0 0-2.595-1.734l-1.531 3.696c.485.2.926.495 1.297.867l2.829-2.829Zm1.734 2.596a8 8 0 0 0-1.734-2.595l-2.829 2.828a4 4 0 0 1 .867 1.298l3.696-1.531ZM7.75 18.813a2.75 2.75 0 0 0 2.75-2.75h-4c0-.69.56-1.25 1.25-1.25v4ZM5 16.063a2.75 2.75 0 0 0 2.75 2.75v-4c.69 0 1.25.56 1.25 1.25H5Zm2.75-2.75A2.75 2.75 0 0 0 5 16.063h4c0 .69-.56 1.25-1.25 1.25v-4Zm2.75 2.75a2.75 2.75 0 0 0-2.75-2.75v4c-.69 0-1.25-.56-1.25-1.25h4Zm1.75 2.75a2.75 2.75 0 0 0 2.75-2.75h-4c0-.69.56-1.25 1.25-1.25v4Zm-2.75-2.75a2.75 2.75 0 0 0 2.75 2.75v-4c.69 0 1.25.56 1.25 1.25h-4Zm2.75-2.75a2.75 2.75 0 0 0-2.75 2.75h4c0 .69-.56 1.25-1.25 1.25v-4Zm2.75 2.75a2.75 2.75 0 0 0-2.75-2.75v4c-.69 0-1.25-.56-1.25-1.25h4Z" fill="#C63031" mask="url(#b)"/><path fill-rule="evenodd" clip-rule="evenodd" d="M6.11 11.469a.75.75 0 0 1 1.054.117l1.874 2.342a.75.75 0 1 1-1.171.937l-1.874-2.342a.75.75 0 0 1 .117-1.054ZM14.07 11.469a.75.75 0 0 0-1.054.117l-1.874 2.342a.75.75 0 1 0 1.171.937l1.874-2.342a.75.75 0 0 0-.117-1.054Z" fill="#C63031"/></svg>
